svg/food/fork_line.svg

<?xml version="1.0" encoding="UTF-8"?>
<svg width="24px" height="24px" viewBox="0 0 24 24" version="1.1" xmlns="http://www.w3.org/2000/svg" xmlns:xlink="http://www.w3.org/1999/xlink">
    <title>fork_line</title>
    <g id="Icon" stroke="none" stroke-width="1" fill="none" fill-rule="evenodd">
        <g id="Food" transform="translate(-912.000000, 0.000000)">
            <g id="fork_line" transform="translate(912.000000, 0.000000)">
                <path d="M24,0 L24,24 L0,24 L0,0 L24,0 Z M12.5935,23.2578 L12.5819,23.2595 L12.5109,23.295 L12.4919,23.2987 L12.4767,23.295 L12.4057,23.2595 C12.3958,23.2564 12.387,23.259 12.3821,23.2649 L12.378,23.2758 L12.3609,23.7031 L12.3659,23.7235 L12.3769,23.7357 L12.4805,23.8097 L12.4953,23.8136 L12.5071,23.8097 L12.6107,23.7357 L12.6233,23.7197 L12.6267,23.7031 L12.6096,23.2758 C12.6076,23.2657 12.601,23.2593 12.5935,23.2578 Z M12.8584,23.1453 L12.8445,23.1473 L12.6598,23.2397 L12.6499,23.2499 L12.6472,23.2611 L12.6651,23.6906 L12.6699,23.7034 L12.6784,23.7105 L12.8793,23.8032 C12.8914,23.8069 12.9022,23.803 12.9078,23.7952 L12.9118,23.7812 L12.8777,23.1665 C12.8753,23.1546 12.8674,23.147 12.8584,23.1453 Z M12.143,23.1473 C12.1332,23.1424 12.1222,23.1453 12.1156,23.1526 L12.1099,23.1665 L12.0758,23.7812 C12.0751,23.7927 12.0828,23.8019 12.0926,23.8046 L12.1083,23.8032 L12.3092,23.7105 L12.3186,23.7024 L12.3225,23.6906 L12.3404,23.2611 L12.3372,23.2485 L12.3278,23.2397 L12.143,23.1473 Z" id="MingCute" fill-rule="nonzero"></path>
                <path d="M21.0992,17.0318 C20.6633,17.3708 20.035,17.2923 19.6959,16.8564 L17.2019,13.6498 C16.5088,12.7586 15.3526,12.4674 14.3623,12.8156 L14.8692,13.4547 L19.0711,17.6566 C19.4616,18.0472 19.4616,18.6803 19.0711,19.0708 C18.6805,19.4614 18.0474,19.4614 17.6569,19.0708 L13.4548,14.8688 L12.8159,14.362 C12.4677,15.3523 12.7588,16.5085 13.65,17.2017 L16.8566,19.6957 C17.2925,20.0348 17.3711,20.6631 17.032,21.099 C16.6929,21.535 16.0647,21.6135 15.6287,21.2744 L12.4222,18.7804 C10.6372,17.3922 10.1969,14.9666 11.1993,13.08 L4.42214,7.70495 C3.32779,6.83702 3.23419,5.20925 4.22184,4.2216 C5.20949,3.23395 6.83726,3.32754 7.7052,4.4219 L13.0802,11.1991 C14.9669,10.1967 17.3924,10.637 18.7807,12.4219 L21.2746,15.6285 C21.6137,16.0644 21.5352,16.6927 21.0992,17.0318 Z M7.95242,7.95217 L6.1382,5.66469 C6.01308,5.50693 5.77843,5.49343 5.63605,5.63581 C5.49368,5.77818 5.50717,6.01284 5.66493,6.13796 L7.95242,7.95217 Z" id="形状" fill="#09244B"></path>
            </g>
        </g>
    </g>
</svg>

<svg xmlns="http://www.w3.org/2000/svg" width="24" height="24"><g fill="none" fill-rule="evenodd"><path d="M24 0v24H0V0h24ZM12.594 23.258l-.012.002-.071.035-.02.004-.014-.004-.071-.036c-.01-.003-.019 0-.024.006l-.004.01-.017.428.005.02.01.013.104.074.015.004.012-.004.104-.074.012-.016.004-.017-.017-.427c-.002-.01-.009-.017-.016-.018Zm.264-.113-.014.002-.184.093-.01.01-.003.011.018.43.005.012.008.008.201.092c.012.004.023 0 .029-.008l.004-.014-.034-.614c-.003-.012-.01-.02-.02-.022Zm-.715.002a.023.023 0 0 0-.027.006l-.006.014-.034.614c0 .012.007.02.017.024l.015-.002.201-.093.01-.008.003-.011.018-.43-.003-.012-.01-.01-.184-.092Z"/><path fill="#09244B" d="M21.1 17.032a1 1 0 0 1-1.404-.176l-2.494-3.206a2.532 2.532 0 0 0-2.84-.834l.507.639 4.202 4.202a1 1 0 0 1-1.414 1.414l-4.202-4.202-.64-.507a2.532 2.532 0 0 0 .835 2.84l3.207 2.494a1 1 0 0 1-1.228 1.578l-3.207-2.494a4.534 4.534 0 0 1-1.223-5.7L4.422 7.705a2.337 2.337 0 1 1 3.283-3.283l5.375 6.777a4.534 4.534 0 0 1 5.7 1.223l2.495 3.207a1 1 0 0 1-.176 1.403ZM7.951 7.952 6.138 5.665a.337.337 0 1 0-.473.473l2.287 1.814Z"/></g></svg>
